X: 35824
T: Saltón De Meres
R: reel
M: 4/4
K: Dmajor
|:dfed cABc|ABde fedA|dfed cABc|1 ABde d4:|2 ABde d3c||
|:Bdfd Adfd|gfed ecdc|Bdfd Adfd|1 ABde d3c:|2 ABde d4||

